X:1
T:Etude IV.
T:Etude IV.
T:24 Etudes, Op.29
T:H.Bertini
C:H.Bertini
%%score { ( 1 2 ) | ( 3 4 ) }
L:1/8
Q:1/4=55
M:2/4
K:Bb
V:1 treble nm="Piano" snm="Pno."
V:2 treble 
V:3 bass 
V:4 bass 
V:1
"^Andante espressivo."!p! (dedc | B3) (B | ccGA |!<(! Bd!<)!c)(f | dedc | B3) (B | cc B/A/G/A/ | %7
!>(! c2!>)! B) z :|!f!!>(! (eed^c!>)! | d3) (f |!>(! eed^c!>)! | (!>!d4 |!<(! d))(d=ee!<)! | %13
!>(! f2 =ee!>)! | d2 d/^c/=B/c/ |"_dim." (d2) _e=f |!p! (d)edc | B3) (B | ccGA |!<(! Bd!<)!c)(f | %20
 dedc | B3) (B | cc B/A/G/A/ |!>(! c2!>)! B) z |!f! (e2 d^c | d2 =cB | AA B/A/G/A/ | %27
!<(! B2) (A/B/!<)!!f!f | =e_e d^c | d2 cB | AA B/A/G/A/ |!p! B2) (cA |!pp! B2) (cA | %33
"_dim." B)(dB)(d | B2) z2 |] %35
V:2
 F/B/G/B/ F/B/E/F/ | D/F/D/F/ D/F/D/F/ | E/F/E/F/ E/F/E/F/ | D/F/B/!>(!F/ A/F/!>)!f/F/ | %4
 B/^F/G/B/ =F/B/E/F/ | D/F/D/F/ D/F/D/F/ | E/F/E/F/ E/F/E/F/ | E/F/E/F/ D x :| G/B/G/B/ F/B/=E/B/ | %9
 F/B/A/B/ c/B/A/B/ | G/B/G/B/ F/B/=E/B/ | F/B/F/B/ F/A/F/^G/ | F/A/F/A/ =G/A/G/A/ | %13
 F/A/F/A/ G/B/G/B/ | F/A/F/A/ G/A/G/A/ | F/A/^F/A/ G/B/A/c/ | B/^F/G/B/ =F/B/E/F/ | %17
 D/F/D/F/ D/F/D/F/ | E/F/E/F/ E/F/E/F/ | D/F/B/!>(!F/ A/F/!>)!f/F/ | B/^F/G/B/ =F/B/E/F/ | %21
 D/F/D/F/ D/F/D/F/ | E/F/E/F/ E/F/E/F/ | E/F/E/F/ D x | G/B/G/B/ F/B/=E/B/ | F/B/D/F/ E/F/D/F/ | %26
 E/F/E/F/ E/F/E/F/ | D/F/D/F/ A/B/_A/B/ | G/B/_G/B/ F/B/=E/B/ | F/B/D/F/ E/F/D/F/ | %30
 E/F/E/F/ E/F/E/F/ | D/F/D/F/ E/F/E/F/ | D/F/D/F/ E/F/E/F/ | D/F/D/F/ D/F/D/F/ | D2 x2 |] %35
V:3
{/B,,,} B,,4- | B,, .F,.D,.B,, | (F,,2 F,2 | .B,,).F, .F,, z | [B,,,B,,]4- | [B,,,B,,] .F,.D,.B,, | %6
 .A,,.F,.F,,.F, | .B,,.F,, .B,,, z :| [B,,,B,,]4- | [B,,,B,,] .B,,.B, z | [B,,,B,,]4- | %11
 [B,,,B,,]3 (!>!B, | .A,).A,.^C,.C, | .D,2 .G,2 | .A,2 .A,,2 | (D,2 =C,F,, | [B,,,B,,]4-) | %17
 [B,,,B,,] .F,.D,.B,, | (F,,2 F,2 | .B,,).F, .F,, z |{/B,,,} B,,4- | B,, .F,.D,.B,, | %22
 .A,,.F,.F,,.F, | .B,,.F,, .B,,, z |{/B,,,} B,,4- | B,,4 | F,2 (F,,2 | B,,,4) |{/B,,,} B,,4- | %29
 B,,4 | F,2 (F,,2 | B,,,)F, F,,[F,C] | B,,,F, F,,[F,C] | B,,, z [B,,F,]2 | [B,,F,]2 z2 |] %35
V:4
 x4 | x4 | x4 | x4 | x4 | x4 | x4 | x4 :| x4 | x4 | x4 | x4 | x4 | x4 | x4 | x4 | x4 | x4 | x4 | %19
 x4 | z2 z (A,/F,/ | B,) x3 | x4 | x4 | x4 | z (F,A,B, | C2) x2 | x4 | x4 | z (F,A,B, | C2) x2 | %31
 x4 | x4 | x4 | x4 |] %35

